X:1
T: The Absent-Minded Man
C:
R:Jig
Q:180
K:A
M:6/8
L:1/16
d2|c2A2c2 e2f2g2|a2e2d2 c4A2|d2f2d2 c2e2c2|d2B2B2 B4d2|c2A2c2 e2f2g2|a2e2d2 c4A2|B2b2a2 g2f2g2|a2A2A2 A4d2|
c2A2c2 e2f2g2|a2e2d2 c4A2|d2f2d2 c2e2c2|d2B2B2 B4d2|c2A2c2 e2f2g2|a2e2d2 c4A2|B2b2a2 g2f2g2|a2A2A2 A4c2|
e2c2c2 A2c2c2|e2c2c2 A2c2c2|d2B2B2 G2B2B2|d2B2B2 G2B2B2|e2c2c2 f2d2d2|g2e2e2 a2f2f2|e2c2c2 d2B2G2|A2B2A2 A4c2|
e2c2c2 A2c2c2|e2c2c2 A2c2c2|d2B2B2 G2B2B2|d2B2B2 G2B2B2|e2c2c2 f2d2d2|g2e2e2 a2f2f2|e2c2c2 d2B2G2|A2B2A2 A4||
